X:1
T:Ausz tieffer noth
T:Psalm 130.
T:David Wolkenstein, 
T:Psalmen. Für Kirchen vñ Schülen Strassburg, 1583
T:Bayrische Staatsbibliothek, 4 Mus.pr. 1474
%%score [ 1 2 3 4 ]
L:1/8
Q:1/4=240
M:none
K:C
V:1 treble nm="D."
V:2 treble nm="A."
V:3 treble-8 nm="T."
V:4 bass nm="B."
V:1
 E16 | c8 B8 | A8 ^G6 A2 | B4 E8 A4 | ^G8 | ^G8 A8 | B8 G8 | A4 F6 E2 E6 | D^C D4 C8 x2 | E16 | %10
w: Ausz|tieff- er|noth schrei *|* ich zu|dir/|Herr Gott|er- hör|mein rüff- * *|* * * en/|Dein|
w: ||||||||||
 c8 B8 | A8 ^G6 A2 | B4 E8 A4 | ^G8 | ^G8 A8 | B8 G8 | A4 F6 E2 E6 | D^C D4 C8 x2 | E8 E8 | %19
w: gne- dig|oh- ren *|* kehr zu|mir/|Und mei-|ner bitt|sie öff- * *|* * * en/|Dann so|
w: |||||||||
 G8 G8 x2 | ^F2 G2 A4 A8 x2 | ^G8 A8 | A8 ^G8 | A8 B6 A2 | B4 c4 d2 G2 G8 x4 | ^F4 G8 x4 | %26
w: du wilt|das * * se-|hen an/|Was sünd|und un- *|* recht ist * *|ge- than/|
w: |||||||
 z4 E4 A8 | ^G8 A4 E8 | G6 F2 E6 DC x4 | D4 E4 B2 AB c6 x6 | B2 A8 ^G8 |] %31
w: Wer kan|Herr vor dir|blei- * * * *|* ben, * * * *||
w: |||* * vor dir * blei-|* * ben.|
V:2
 B,16 | A,B,CD E8 E4 | E8 E8 | E4 B,4 ^C6 D2 | E8 | E8 E8 | G8 E8 | C8 C6 B,2 x2 | %8
w: Ausz|tieff- * * * * er|noth schrei|ich zu dir *||Herr Gott|er- hör|mein rüff- *|
w: ||||||||
 A,2 G,2 A,4 A,8 | B,16 | A,B,CD E8 E4 | E8 E8 | E4 B,4 ^C6 D2 | E8 | E8 E8 | G8 E8 | %16
w: * * * en|Dein|gne- * * * * dig|oh- ren|kehr zu mir *||Und mei-|ner bitt|
w: ||||||||
 C8 C6 B,2 x2 | A,2 G,2 A,4 A,8 | C8 B,8 | E8 D4 D6 | E2 F4 F4 E2 D2 E4 | E4 E8 x4 | E8 E8 | %23
w: sie öff- *|* * * en/|Dann so|du wilt das-|* * se- * * *|hen an/|Was sünd|
w: |||||||
 E8 G8 | G4 E4 D16 | B,8 x8 | z4 C4 E8 | E8 C12 | B,2 A,2 B,4 C4 A,6 x2 | B,2 C4 B,4 A,6 x8 | %30
w: und un-|recht ist ge-|than/|Wer kan|Herr vor|* * * dir blei-|* * ben, *|
w: ||||||* * * blei-|
 B,2 C8 B,8 |] %31
w: |
w: * * ben.|
V:3
"^c.f." G16 | E8 E8 | c8 B8 | G8 A8 | B8 | B8 c8 | d8 c8 | A8 G8 x2 | F8 E8 |"^c.f." G16 | E8 E8 | %11
w: Ausz|tieff- er|noth schrei|ich zu|dir/|Herr Gott|er- höf|mein rüff-|* en|Dein|gne- dig|
 c8 B8 | G8 A8 | B8 | B8 c8 | d8 c8 | A8 G8 x2 | F8 E8 | A8 G8 | c8 B8 x2 | A4 d4- d2 cB c4 x2 | %21
w: oh- ren|kehr zu|mir/|Und mei-|ner bitt|sie öff-|* en/|Dann so|du wilt|das se- * * * *|
 B8 c8 | c8 B8 | c8 d8 | G8 B8 x8 | A8 G8 | z4 G4 c8 | B8 A8 x4 | E8 G8 x4 | F8 E16- | E16 x2 |] %31
w: hen an/|Was sünd|und un-|recht ist|ge- than/|Wer kan|Herr vor|dir blei-|* ben.||
V:4
 E,16 | A,,8 ^G,,8 | A,,8 E,8 | E,8 A,,8 | E,8 | E,8 A,8 | G,8 C,8 | F,8 C,8 x2 | D,8 A,,8 | E,16 | %10
w: Ausz|tieff- er|noth schrei|ich zu|dir/|Herr Gott|er- hör|mein rüff-|* en.|Dein|
w: ||||||||||
 A,,8 ^G,,8 | A,,8 E,8 | E,8 A,,8 | E,8 | E,8 A,8 | G,8 C,8 | F,8 C,8 x2 | D,8 A,,8 | A,,8 E,8 | %19
w: gne- dig|oh- ren|kehr zu|mir/|Und mei-|ner bitt|sie öff-|* en/|Dann so|
w: |||||||||
 C,8 G,8 x2 | D,4 D,4- D,2 A,,2 A,,4 x2 | E,8 A,,8 | A,8 E,8 | A,8 G,6 F,2 | E,4 C,4 G,8 x8 | %25
w: du wilt|das se- * * *|hen an/|Was sünd|und un- *|* recht ist|
w: ||||||
 D,8 G,,8 | z4 C,4 A,,8 | E,8 A,,12 | E,6 D,2 C,4 D,8 | A,,4 ^G,,4 A,,8- x8 | A,,8 E,8 x2 |] %31
w: ge- than/|Wer kan|Herr voor|dir * * blei-|ben * *||
w: ||||* * blei-|* ben|

